24x24/places/certificate-server.svg

<svg xmlns="http://www.w3.org/2000/svg" width="24" height="24" version="1"><rect style="opacity:.2" width="20" height="12" x="2" y="9.5" rx="1" ry="1"/><path style="fill:#f4f4f7" d="M2 17c0 .554.446 1 1 1h18c.554 0 1-.446 1-1V6c0-.554-.446-1-1-1h-9c-1.5 0-2-2-3.5-2H3c-.554 0-1 .446-1 1"/><rect style="opacity:.2" width="20" height="12" x="2" y="8.5" rx="1" ry="1"/><rect style="fill:#f4f4f7" width="16" height="8" x="4" y="7" rx="1" ry="1"/><rect style="fill:#323a41" width="20" height="12" x="2" y="9" rx="1" ry="1"/><path style="opacity:.1;fill:#f4f4f7" d="M3 3c-.554 0-1 .446-1 1v.5c0-.554.446-1 1-1h5.5c1.5 0 2 2 3.5 2h9c.554 0 1 .446 1 1V6c0-.554-.446-1-1-1h-9c-1.5 0-2-2-3.5-2z"/><path style="fill:#f4f4f7" d="M12 11c-1.108 0-2 .91-2 2.031V14h-.5c-.277 0-.5.223-.5.5v3c0 .277.223.5.5.5h5c.277 0 .5-.223.5-.5v-3c0-.277-.223-.5-.5-.5H14v-.969c0-1.12-.892-2.031-2-2.031zm0 1c.554 0 1 .445 1 1v1h-2v-1c0-.555.446-1 1-1z"/></svg>

<svg xmlns="http://www.w3.org/2000/svg" width="24" height="24" version="1">
 <rect style="opacity:0.2" width="20" height="12" x="2" y="9.5" rx="1" ry="1"/>
 <path style="fill:#f4f4f7" d="M 2,17 C 2,17.554 2.446,18 3,18 H 21 C 21.554,18 22,17.554 22,17 V 6 C 22,5.446 21.554,5 21,5 H 12 C 10.5,5 10,3 8.5,3 H 3 C 2.446,3 2,3.446 2,4"/>
 <rect style="opacity:0.2" width="20" height="12" x="2" y="8.5" rx="1" ry="1"/>
 <rect style="fill:#f4f4f7" width="16" height="8" x="4" y="7" rx="1" ry="1"/>
 <rect style="fill:#323a41" width="20" height="12" x="2" y="9" rx="1" ry="1"/>
 <path style="opacity:0.1;fill:#f4f4f7" d="M 3,3 C 2.446,3 2,3.446 2,4 V 4.5 C 2,3.946 2.446,3.5 3,3.5 H 8.5 C 10,3.5 10.5,5.5 12,5.5 H 21 C 21.554,5.5 22,5.946 22,6.5 V 6 C 22,5.446 21.554,5 21,5 H 12 C 10.5,5 10,3 8.5,3 Z"/>
 <path style="fill:#f4f4f7" d="M 12,11 C 10.892,11 10,11.91 10,13.031 V 14 H 9.5 C 9.223,14 9,14.223 9,14.5 V 17.5 C 9,17.777 9.223,18 9.5,18 H 14.5 C 14.777,18 15,17.777 15,17.5 V 14.5 C 15,14.223 14.777,14 14.5,14 H 14 V 13.031 C 14,11.911 13.108,11 12,11 Z M 12,12 C 12.554,12 13,12.445 13,13 V 14 H 11 V 13 C 11,12.445 11.446,12 12,12 Z"/>
</svg>
